icons/sanctum-filled.svg

<svg xmlns="http://www.w3.org/2000/svg" width="256" height="256" fill="none"><rect width="256" height="256" fill="#1D5873" rx="60"/><path fill="#fff" d="M128 152.375A24.326 24.326 0 0 1 103.625 128 24.326 24.326 0 0 1 128 103.625 24.326 24.326 0 0 1 152.375 128 24.326 24.326 0 0 1 128 152.375m-56.25 7.875v-64.5l24-24h24.75V38H95.375C87.5 38 79.625 41 74 46.625l-27.375 27.75C41 80 38 87.5 38 95.375v6.375h11.25v15H38v22.5h11.25v15H38v6.375c0 7.875 3 15.75 8.625 21.375L74 209.375C79.625 215 87.125 218 95.375 218H120.5v-33.75H95.75zM218 101.75v-6.375c0-7.875-3-15.75-8.625-21.375L182 46.625C176 41 168.5 38 160.625 38H135.5v33.75h24.75l24 24v64.125l-24 24.375H135.5V218h25.125c7.875 0 15.75-3 21.375-8.625L209.375 182C215 176.375 218 168.875 218 160.625v-6.375h-11.25v-15H218v-22.5h-11.25v-15z"/></svg>

<svg width="256" height="256" viewBox="0 0 256 256" fill="none" xmlns="http://www.w3.org/2000/svg">
<rect width="256" height="256" rx="60" fill="#1D5873" />
<path d="M128 152.375C114.5 152.375 103.625 141.5 103.625 128C103.625 114.5 114.5 103.625 128 103.625C141.5 103.625 152.375 114.5 152.375 128C152.375 141.5 141.5 152.375 128 152.375ZM71.75 160.25V95.75L95.75 71.75H120.5V38H95.375C87.5 38 79.625 41 74 46.625L46.625 74.375C41 80 38 87.5 38 95.375V101.75H49.25V116.75H38V139.25H49.25V154.25H38V160.625C38 168.5 41 176.375 46.625 182L74 209.375C79.625 215 87.125 218 95.375 218H120.5V184.25H95.75L71.75 160.25ZM218 101.75V95.375C218 87.5 215 79.625 209.375 74L182 46.625C176 41 168.5 38 160.625 38H135.5V71.75H160.25L184.25 95.75V159.875L160.25 184.25H135.5V218H160.625C168.5 218 176.375 215 182 209.375L209.375 182C215 176.375 218 168.875 218 160.625V154.25H206.75V139.25H218V116.75H206.75V101.75H218Z" fill="white"/>
</svg>
